img/aws.svg

<svg width="105" height="63" viewBox="0 0 105 63" fill="none" xmlns="http://www.w3.org/2000/svg">
<path d="M29.8871 22.9887C29.7705 26.6268 31.6043 28.2378 31.6496 29.261C31.628 29.4692 31.5565 29.6693 31.4409 29.8445C31.3254 30.0197 31.1692 30.165 30.9855 30.2681L28.9119 31.7072C28.6436 31.8938 28.3273 32.0007 27.9999 32.0156C27.9303 32.0124 26.6732 32.3096 24.6823 27.9021C23.4676 29.4055 21.9222 30.6133 20.1642 31.4332C18.4062 32.2531 16.4823 32.6633 14.5398 32.6324C11.9026 32.7754 4.75542 31.1483 5.12315 23.6039C4.86558 17.4553 10.6407 13.6357 16.6134 13.9585C17.7635 13.9618 20.1124 14.018 24.2255 14.9656V12.4567C24.6612 8.20668 21.8441 4.90911 16.9665 5.40383C16.5777 5.40543 13.8238 5.32352 9.54072 7.02771C8.34845 7.57061 8.19617 7.48067 7.79929 7.48067C6.59891 7.48067 7.09299 4.03051 7.32303 3.59362C8.16701 2.56564 13.1321 0.646211 18.0049 0.673516C21.263 0.387814 24.5036 1.38483 27.0263 3.44906C28.0518 4.58639 28.8341 5.91801 29.3261 7.3635C29.8181 8.80898 30.0095 10.3383 29.8888 11.8592L29.8871 22.9887ZM15.8876 28.1912C21.1411 28.1157 23.3653 24.9836 23.8723 23.2971C24.2708 21.6828 24.2044 20.6613 24.2044 18.8961C22.6379 18.5234 20.383 18.117 17.7959 18.1138C15.3417 17.9307 10.8593 19.0181 11.0343 23.2955C10.8334 25.9923 12.8357 28.339 15.8876 28.1912ZM43.5756 31.8936C42.3023 32.0092 41.7094 31.1129 41.5215 30.2279L33.4542 3.78155C33.2971 3.33502 33.1934 2.87403 33.1432 2.40341C33.1135 2.20939 33.1626 2.01158 33.2799 1.85346C33.3971 1.69534 33.5729 1.58985 33.7685 1.56015C33.8074 1.55372 33.4235 1.56015 37.3729 1.56015C38.7952 1.4188 39.2585 2.5287 39.4059 3.2258L45.1923 25.8462L50.564 3.2258C50.6499 2.70859 51.0403 1.44771 52.6375 1.58103H55.4174C55.7689 1.55212 57.2171 1.50072 57.4714 3.24668L62.8853 26.1562L68.858 3.24668C68.9357 2.89652 69.2986 1.42041 70.9121 1.58103H74.1066C74.2443 1.56015 75.1028 1.45092 74.957 2.95916C74.8874 3.25631 75.5094 1.24694 66.4119 30.2488C66.2256 31.1338 65.6311 32.0301 64.3578 31.9144H61.3301C59.5579 32.0992 59.3036 30.3628 59.276 30.1878L53.9043 8.1617L48.5942 30.1653C48.5683 30.3404 48.3139 32.0767 46.5401 31.892H43.5756V31.8936ZM87.8777 32.7979C86.9251 32.7995 82.3828 32.7497 78.5857 30.8238C78.2075 30.665 77.8853 30.3984 77.66 30.0579C77.4348 29.7173 77.3167 29.3181 77.3205 28.9108V27.1841C77.3205 25.8269 78.3249 26.0758 78.7509 26.2381C80.3773 26.8902 81.4206 27.3849 83.418 27.78C89.355 28.9895 91.9664 27.4106 92.6063 27.0605C94.7365 25.806 94.905 22.9357 93.4567 21.4467C91.759 20.0349 90.9491 19.9819 84.85 18.0737C84.0984 17.8665 77.7709 15.8876 77.7563 9.66352C77.6575 5.12756 81.8142 0.639785 89.0181 0.676728C91.0706 0.675122 96.5395 1.3401 98.0201 3.18564C98.2388 3.52134 98.3473 3.91647 98.3311 4.31642V5.9403C98.3311 6.65346 98.0687 7.01004 97.5422 7.01004C96.2932 6.87191 94.0772 5.2159 89.5786 5.28336C88.4625 5.22554 83.1167 5.42953 83.3564 9.29408C83.2868 12.3395 87.6671 13.4815 88.1676 13.6132C94.0739 15.3752 96.0486 15.6676 98.3927 18.3644C101.169 21.9382 99.6724 26.1224 99.0974 27.2693C96.0065 33.291 88.0137 32.8011 87.8777 32.7979ZM94.3898 49.6407C83.0454 57.948 66.5771 62.3699 52.516 62.3699C33.5434 62.494 15.2102 55.5768 1.12028 42.9781C0.0624649 42.032 0.995549 40.7358 2.28178 41.457C17.9117 50.322 35.608 54.9799 53.6144 54.9685C67.061 54.897 80.361 52.1923 92.7504 47.0097C94.6587 46.2066 96.277 48.2625 94.3898 49.6407ZM99.1184 44.2936C97.667 42.4432 89.5154 43.4294 85.8657 43.8615C84.7658 43.9852 84.5795 43.0391 85.5757 42.3404C92.0668 37.8157 102.728 39.1119 103.952 40.633C105.175 42.1541 103.62 52.7455 97.5438 57.8051C96.6107 58.5873 95.7182 58.1745 96.1329 57.1465C97.5001 53.7333 100.57 46.1455 99.1184 44.2936Z" fill="white"/>
</svg>

<svg xmlns="http://www.w3.org/2000/svg" width="105" height="63" fill="none"><path fill="#fff" d="M29.887 22.989c-.117 3.638 1.717 5.249 1.763 6.272a1.304 1.304 0 0 1-.665 1.007l-2.073 1.44a1.735 1.735 0 0 1-.912.308c-.07-.004-1.327.294-3.318-4.114a12.717 12.717 0 0 1-4.518 3.531 12.826 12.826 0 0 1-5.624 1.2c-2.637.142-9.785-1.485-9.417-9.03-.257-6.148 5.518-9.967 11.49-9.645 1.15.004 3.5.06 7.613 1.008v-2.51c.435-4.25-2.382-7.547-7.26-7.052-.388.001-3.142-.08-7.425 1.624-1.193.543-1.345.453-1.742.453-1.2 0-.706-3.45-.476-3.887.844-1.028 5.81-2.948 10.682-2.92a12.522 12.522 0 0 1 9.021 2.775 11.268 11.268 0 0 1 2.3 3.915 11.2 11.2 0 0 1 .563 4.495l-.002 11.13Zm-14 5.202c5.254-.075 7.478-3.207 7.985-4.894.399-1.614.332-2.636.332-4.4-1.566-.374-3.821-.78-6.408-.783-2.454-.183-6.937.904-6.762 5.181-.2 2.697 1.802 5.044 4.854 4.896Zm27.689 3.703c-1.274.115-1.867-.781-2.054-1.666L33.454 3.782a6.092 6.092 0 0 1-.31-1.379.736.736 0 0 1 .136-.55.748.748 0 0 1 .489-.293c.038-.006-.346 0 3.604 0 1.422-.141 1.886.969 2.033 1.666l5.786 22.62 5.372-22.62c.086-.517.476-1.778 2.074-1.645h2.78c.35-.029 1.8-.08 2.053 1.666l5.414 22.91 5.973-22.91c.078-.35.44-1.827 2.054-1.666h3.195c.137-.02.996-.13.85 1.378-.07.297.552-1.712-8.545 27.29-.186.885-.78 1.781-2.054 1.665H61.33c-1.772.185-2.026-1.551-2.054-1.726L53.904 8.162l-5.31 22.003c-.026.175-.28 1.912-2.054 1.727h-2.964v.002Zm44.302.904c-.953.002-5.495-.048-9.292-1.974a2.07 2.07 0 0 1-.926-.766 2.045 2.045 0 0 1-.34-1.147v-1.727c0-1.357 1.005-1.108 1.43-.946 1.627.652 2.67 1.147 4.668 1.542 5.937 1.21 8.548-.37 9.188-.72 2.13-1.254 2.299-4.124.85-5.613-1.697-1.412-2.507-1.465-8.606-3.373-.752-.208-7.08-2.186-7.094-8.41C77.657 5.128 81.814.64 89.018.677c2.053-.002 7.522.663 9.002 2.509.219.335.327.73.311 1.13V5.94c0 .713-.262 1.07-.789 1.07-1.249-.138-3.465-1.794-7.963-1.727-1.116-.057-6.462.147-6.223 4.011-.07 3.045 4.311 4.188 4.812 4.32 5.906 1.761 7.88 2.054 10.225 4.75 2.776 3.574 1.28 7.758.704 8.905-3.09 6.022-11.083 5.532-11.22 5.529ZM94.39 49.64C83.045 57.948 66.577 62.37 52.516 62.37c-18.973.124-37.306-6.793-51.396-19.392-1.058-.946-.124-2.242 1.162-1.521a103.933 103.933 0 0 0 51.332 13.511A102.843 102.843 0 0 0 92.75 47.01c1.909-.803 3.527 1.253 1.64 2.63Zm4.728-5.347c-1.451-1.85-9.603-.865-13.252-.432-1.1.123-1.287-.823-.29-1.522 6.49-4.524 17.152-3.228 18.376-1.707 1.223 1.521-.332 12.112-6.408 17.172-.933.782-1.826.37-1.411-.658 1.367-3.414 4.437-11.002 2.985-12.853Z"/></svg>
